src/main/resources/icons/CLionIcons/icons/environments/minGW.svg

<svg xmlns="http://www.w3.org/2000/svg" xmlns:xlink="http://www.w3.org/1999/xlink" width="16" height="16" viewBox="0 0 16 16">
  <defs>
    <circle id="mingw-a" cx="7" cy="7" r="6"/>
    <filter id="mingw-b" width="100%" height="100%" x="0%" y="0%" filterUnits="objectBoundingBox">
      <feOffset in="SourceAlpha" result="shadowOffsetInner1"/>
      <feComposite in="shadowOffsetInner1" in2="SourceAlpha" k2="-1" k3="1" operator="arithmetic" result="shadowInnerInner1"/>
      <feColorMatrix in="shadowInnerInner1" values="0 0 0 0 0   0 0 0 0 0   0 0 0 0 0  0 0 0 0.5 0"/>
    </filter>
    <path id="mingw-c" d="M7,0 C10.1706393,0 12.8489278,2.1080039 13.7098107,4.99895676 L13.70992,4.9993238 L13.718944,5.02988981 C13.7740561,5.21815533 13.8214704,5.40970859 13.860823,5.60418573 L13.8841372,5.72487099 C13.9188626,5.91357336 13.9460031,6.10475417 13.9652638,6.29825433 C13.9663428,6.30909204 13.9674111,6.32008534 13.968454,6.33108605 C13.9768929,6.42011823 13.9836577,6.50952049 13.9887277,6.59937583 C13.990743,6.63506615 13.9925029,6.67111943 13.993989,6.70724334 C13.9979835,6.80434058 14,6.90193479 14,7 C14,10.8659932 10.8659932,14 7,14 C3.13400675,14 0,10.8659932 0,7 L0,7 L0.006,6.707 L0.0112886839,6.59908553 C0.0163422974,6.50952049 0.0231070604,6.42011823 0.0315351318,6.33120052 C0.0325888677,6.32008534 0.0336572113,6.30909204 0.034750954,6.29810623 C0.0539968541,6.10475417 0.0811373511,5.91357336 0.115832214,5.72503737 L0.139222281,5.60396217 C0.178529628,5.40970859 0.225943895,5.21815533 0.281055994,5.02988981 C0.284008326,5.01980356 0.287032755,5.00955877 0.290079965,4.9993238 C1.15107217,2.1080039 3.82936074,0 7,0 Z M3.606,6.9384 C2.6944,6.9384 2.0279,7.6393 2.0279,8.495 L2.0279,8.495 C2.0279,9.3937 2.6729,10.0516 3.6103,10.0516 C4.1607,10.0516 4.5864,9.8366 4.896,9.5743 L4.896,9.5743 L4.896,8.2671 L3.5888,8.2671 L3.5888,8.839 L4.2553,8.839 L4.2553,9.269 C4.0876,9.3894 3.8726,9.4496 3.6318,9.4496 C3.0986,9.4496 2.7202,9.0454 2.7202,8.495 L2.7202,8.495 C2.7202,7.9747 3.1029,7.549 3.5845,7.549 C3.9328,7.549 4.1392,7.6608 4.3714,7.8543 L4.3714,7.8543 L4.7885,7.3512 C4.4746,7.0846 4.1478,6.9384 3.606,6.9384 Z M10.0443,6.99 L9.3821,6.99 L9.3821,8.71 C9.3821,9.5958 9.8766,10.0473 10.685,10.0473 C11.4934,10.0473 12.0051,9.6001 12.0051,8.6885 L12.0051,8.6885 L12.0051,6.99 L11.3429,6.99 L11.3429,8.7143 C11.3429,9.1916 11.0978,9.4367 10.6936,9.4367 C10.2894,9.4367 10.0443,9.183 10.0443,8.6928 L10.0443,8.6928 L10.0443,6.99 Z M6.393,6.99 L5.7824,6.99 L5.7824,10 L6.436,10 L6.436,8.0865 L7.8937,10 L8.457,10 L8.457,6.99 L7.8034,6.99 L7.8034,8.8433 L6.393,6.99 Z M0.006,6.707 L0.002,6.83 L0.0028348311,6.79883972 L0.006,6.707 Z M7,1 C4.38781865,1 2.16552033,2.66928766 1.34165389,4.99931412 L12.6583461,4.99931412 C11.8344797,2.66928766 9.61218135,1 7,1 Z M10,3 L10,4 L4,4 L4,3 L10,3 Z"/>
    <filter id="mingw-d" width="100%" height="100%" x="0%" y="0%" filterUnits="objectBoundingBox">
      <feOffset in="SourceAlpha" result="shadowOffsetInner1"/>
      <feComposite in="shadowOffsetInner1" in2="SourceAlpha" k2="-1" k3="1" operator="arithmetic" result="shadowInnerInner1"/>
      <feColorMatrix in="shadowInnerInner1" values="0 0 0 0 0   0 0 0 0 0   0 0 0 0 0  0 0 0 0.5 0"/>
    </filter>
  </defs>
  <g fill="none" fill-rule="evenodd" transform="translate(1 1)">
    <use fill="#FCFCFE" xlink:href="#mingw-a"/>
    <use fill="#000" filter="url(#mingw-b)" xlink:href="#mingw-a"/>
    <use fill="#4E4E9D" xlink:href="#mingw-c"/>
    <use fill="#000" filter="url(#mingw-d)" xlink:href="#mingw-c"/>
  </g>
</svg>

<svg xmlns="http://www.w3.org/2000/svg" xmlns:xlink="http://www.w3.org/1999/xlink" width="16" height="16" viewBox="0 0 16 16"><rect id="frame" width="16" height="16" fill="none"/><defs><circle id="a" cx="7" cy="7" r="6"/><filter id="b" width="100%" height="100%" x="0%" y="0%" filterUnits="objectBoundingBox"><feOffset in="SourceAlpha" result="shadowOffsetInner1"/><feComposite in="shadowOffsetInner1" in2="SourceAlpha" k2="-1" k3="1" operator="arithmetic" result="shadowInnerInner1"/><feColorMatrix in="shadowInnerInner1" values="0 0 0 0 0 0 0 0 0 0 0 0 0 0 0 0 0 0 0.5 0"/></filter><path id="c" d="M7 0a7.003 7.003 0 0 1 6.71 4.999l.009.03c.055.19.102.38.142.575l.023.12A6.996 6.996 0 0 1 14 7 7 7 0 0 1 0 7l.006-.293.005-.108a7.048 7.048 0 0 1 .105-.874l.023-.121a6.95 6.95 0 0 1 .151-.605C1.151 2.108 3.83 0 7 0zM3.606 6.938c-.912 0-1.578.701-1.578 1.557 0 .899.645 1.557 1.582 1.557.55 0 .976-.215 1.286-.478V8.267H3.589v.572h.666v.43c-.167.12-.382.18-.623.18-.533 0-.912-.404-.912-.954 0-.52.383-.946.864-.946.349 0 .555.112.787.305l.417-.503c-.313-.266-.64-.413-1.182-.413zm6.438.052h-.662v1.72c0 .886.495 1.337 1.303 1.337.808 0 1.32-.447 1.32-1.359V6.99h-.662v1.724c0 .478-.245.723-.65.723-.404 0-.649-.254-.649-.744V6.99zm-3.651 0h-.61V10h.653V8.086L7.894 10h.563V6.99h-.654v1.853L6.393 6.99zM.006 6.707l-.004.123v-.031l.004-.092zM7 1a6.002 6.002 0 0 0-5.658 4h11.316A6.002 6.002 0 0 0 7 1zm3 2v1H4V3h6z"/><filter id="d" width="100%" height="100%" x="0%" y="0%" filterUnits="objectBoundingBox"><feOffset in="SourceAlpha" result="shadowOffsetInner1"/><feComposite in="shadowOffsetInner1" in2="SourceAlpha" k2="-1" k3="1" operator="arithmetic" result="shadowInnerInner1"/><feColorMatrix in="shadowInnerInner1" values="0 0 0 0 0 0 0 0 0 0 0 0 0 0 0 0 0 0 0.5 0"/></filter></defs><g fill="none" fill-rule="evenodd" transform="translate(1 1)"><use fill="#FCFCFE" xlink:href="#a"/><use fill="#000" filter="url(#b)" xlink:href="#a"/><use fill="#4E4E9D" xlink:href="#c"/><use fill="#000" filter="url(#d)" xlink:href="#c"/></g></svg>
